src/parts/accessories/Kurt.svg

<svg>
  <g
    id="Top/_Resources/Kurt"
    fill="none"
    transform="translate(62.000000, 85.000000)"
    strokeWidth="1"
  >
    <defs>
      <filter
        id="filter1"
        x="-0.8%"
        y="-2.0%"
        width="101.5%"
        height="108.0%"
        filterUnits="objectBoundingBox"
      >
        <feOffset
          dx="0"
          dy="2"
          in="SourceAlpha"
          result="shadowOffsetOuter1"
        />
        <feColorMatrix
          values="0 0 0 0 0   0 0 0 0 0   0 0 0 0 0  0 0 0 0.16 0"
          type="matrix"
          in="shadowOffsetOuter1"
          result="shadowMatrixOuter1"
        />
        <feMerge>
          <feMergeNode in="shadowMatrixOuter1" />
          <feMergeNode in="SourceGraphic" />
        </feMerge>
      </filter>
    </defs>
    <g
      id="Kurts"
      filter="url('#filter1')"
      transform="translate(5.000000, 2.000000)"
    >
      <path
        id="It!"
        d="M66,11.1111111 C54.9625586,11.1111111 53.3705645,2.0266011 30.6705882,0.740740741 C7.98552275,-0.283199952 0.815225204,6.4494855 0.776470588,11.1111111 C0.813236892,15.4042795 -0.352293566,26.5612661 14.3647059,39.6296296 C29.1367705,55.1420807 44.2704162,49.8818301 49.6941176,44.8148148 C55.1352081,42.4731118 61.3403442,21.4596351 66,21.4814815 C70.6596558,21.5033279 76.8647919,42.4731118 82.3058824,44.8148148 C87.7295838,49.8818301 102.86323,55.1420807 117.635294,39.6296296 C132.352294,26.5612661 131.186763,15.4042795 131.223529,11.1111111 C131.184775,6.4494855 124.014477,-0.283199952 101.329412,0.740740741 C78.6294355,2.0266011 77.0374414,11.1111111 66,11.1111111 Z"
        fill="#F4F4F4"
        fillRule="nonzero"
      />
      <path
        id="Did"
        d="M55.1294118,21.4814815 C55.5103632,13.8233491 42.2156493,5.64243259 27.9529412,5.92592593 C13.6973442,6.22450879 11.8417942,15.3786982 11.6470588,18.8888889 C11.2982286,27.0220633 20.014463,45.3037598 36.1058824,44.8148148 C52.1972736,44.305848 54.9092435,26.5344305 55.1294118,21.4814815 Z"
        fill="#2F383B"
        fillRule="nonzero"
      />
      <path
        id="Courtney"
        d="M120.352941,21.4814815 C120.733893,13.8233491 107.439179,5.64243259 93.1764706,5.92592593 C78.9208736,6.22450879 77.0653236,15.3786982 76.8705882,18.8888889 C76.521758,27.0220633 85.2379924,45.3037598 101.329412,44.8148148 C117.420803,44.305848 120.132773,26.5344305 120.352941,21.4814815 Z"
        fill="#2F383B"
        fillRule="nonzero"
        transform="translate(98.611765, 25.370370) scale(-1, 1) translate(-98.611765, -25.370370) "
      />
    </g>
  </g>
</svg>

<svg>
  <g id="Top/_Resources/Kurt" fill="none" transform="translate(62 85)">
    <defs>
      <filter id="filter1" width="101.5%" height="108%" x="-.8%" y="-2%" filterUnits="objectBoundingBox">
        <feOffset dy="2" in="SourceAlpha" result="shadowOffsetOuter1"/>
        <feColorMatrix in="shadowOffsetOuter1" result="shadowMatrixOuter1" values="0 0 0 0 0 0 0 0 0 0 0 0 0 0 0 0 0 0 0.16 0"/>
        <feMerge>
          <feMergeNode in="shadowMatrixOuter1"/>
          <feMergeNode in="SourceGraphic"/>
        </feMerge>
      </filter>
    </defs>
    <g id="Kurts" filter="url('#filter1')" transform="translate(5 2)">
      <path id="It!" fill="#F4F4F4" d="M66 11.111c-11.037 0-12.63-9.084-35.33-10.37C7.987-.283.816 6.449.777 11.11c.037 4.293-1.128 15.45 13.589 28.519 14.772 15.512 29.905 10.252 35.33 5.185C55.134 42.473 61.34 21.46 66 21.48s10.865 20.992 16.306 23.334c5.424 5.067 20.557 10.327 35.33-5.185 14.716-13.069 13.55-24.226 13.588-28.519-.04-4.662-7.21-11.394-29.895-10.37C78.63 2.027 77.037 11.11 66 11.11"/>
      <path id="Did" fill="#2F383B" d="M55.13 21.481c.38-7.658-12.914-15.839-27.177-15.555-14.256.299-16.111 9.453-16.306 12.963-.349 8.133 8.367 26.415 24.459 25.926 16.091-.51 18.803-18.28 19.023-23.334"/>
      <path id="Courtney" fill="#2F383B" d="M120.353 21.481c.38-7.658-12.914-15.839-27.177-15.555-14.255.299-16.11 9.453-16.305 12.963-.35 8.133 8.367 26.415 24.458 25.926 16.092-.51 18.804-18.28 19.024-23.334" transform="matrix(-1 0 0 1 197.224 0)"/>
    </g>
  </g>
</svg>
